build/assets/file_type_modern-fortran.svg

<?xml version="1.0" encoding="UTF-8" standalone="no"?><!DOCTYPE svg PUBLIC "-//W3C//DTD SVG 1.1//EN" "http://www.w3.org/Graphics/SVG/1.1/DTD/svg11.dtd"><svg width="100%" height="100%" viewBox="0 0 16 16" version="1.1" xmlns="http://www.w3.org/2000/svg" xmlns:xlink="http://www.w3.org/1999/xlink" xml:space="preserve" xmlns:serif="http://www.serif.com/" style="fill-rule:evenodd;clip-rule:evenodd;stroke-linejoin:round;stroke-miterlimit:2;"><path id="file_type_modern-fortran.svg" d="M4.756,0.021c-3.254,0.205 -4.116,0.643 -4.614,2.375c-0.124,0.438 -0.142,1.161 -0.142,5.608c0,4.447 0.018,5.17 0.142,5.607c0.436,1.509 1.129,2.001 3.245,2.268c1.28,0.161 7.946,0.161 9.226,0c2.116,-0.267 2.809,-0.759 3.245,-2.268c0.124,-0.437 0.142,-1.16 0.142,-5.607c0,-4.447 -0.018,-5.17 -0.142,-5.608c-0.427,-1.473 -1.138,-1.991 -3.102,-2.25c-0.694,-0.098 -6.925,-0.188 -8,-0.125l0,0Zm9.315,2.018c0.045,0.143 -0.027,4.625 -0.08,4.786c-0.027,0.08 -0.213,0.107 -0.675,0.089l-0.649,-0.026l-0.071,-0.581c-0.178,-1.554 -0.374,-2.116 -0.863,-2.527c-0.151,-0.134 -0.417,-0.268 -0.604,-0.304c-0.418,-0.089 -3.725,-0.08 -3.813,0.009c-0.045,0.036 -0.08,0.867 -0.098,1.849l-0.027,1.777l0.605,0c1.146,0 1.537,-0.375 1.617,-1.581l0.054,-0.786l0.631,-0.026c0.551,-0.018 0.64,0 0.666,0.134c0.018,0.089 0.018,1.544 -0.008,3.241l-0.045,3.081l-0.64,0.026c-0.355,0.018 -0.649,0.018 -0.658,0c0,-0.017 -0.035,-0.455 -0.071,-0.973c-0.106,-1.366 -0.311,-1.607 -1.449,-1.67l-0.693,-0.044l0,1.714c0,2.402 0.053,2.5 1.333,2.581l0.809,0.044l-0.026,0.679l-0.027,0.679l-0.889,0.053c-1.689,0.107 -5.6,0.09 -5.716,-0.027c-0.124,-0.125 -0.142,-0.857 -0.026,-1.169c0.08,-0.197 0.142,-0.224 0.809,-0.259c0.64,-0.036 0.755,-0.072 0.96,-0.286l0.24,-0.232l0.026,-4.197l0.027,-4.197l-0.222,-0.223c-0.205,-0.205 -0.294,-0.223 -0.934,-0.223c-0.391,0 -0.737,-0.036 -0.764,-0.09c-0.089,-0.151 -0.16,-0.955 -0.098,-1.196l0.054,-0.232l5.635,0c4.436,0 5.645,0.026 5.68,0.107l0,0Z"/></svg>

<?xml version="1.0" encoding="UTF-8" standalone="no"?>
<!DOCTYPE svg PUBLIC "-//W3C//DTD SVG 1.1//EN" "http://www.w3.org/Graphics/SVG/1.1/DTD/svg11.dtd">
<svg width="100%" height="100%" viewBox="0 0 16 16" version="1.1" xmlns="http://www.w3.org/2000/svg" xmlns:xlink="http://www.w3.org/1999/xlink" xml:space="preserve" xmlns:serif="http://www.serif.com/" style="fill-rule:evenodd;clip-rule:evenodd;stroke-linejoin:round;stroke-miterlimit:2;">
    <style>
      .fortran {
        fill: #000;
        fill-rule: evenodd;
      }
    </style>
    <path id="file_type_modern-fortran.svg" class="fortran" d="M4.756,0.021C1.502,0.226 0.64,0.664 0.142,2.396C0.018,2.834 0,3.557 0,8.004C0,12.451 0.018,13.174 0.142,13.611C0.578,15.12 1.271,15.612 3.387,15.879C4.667,16.04 11.333,16.04 12.613,15.879C14.729,15.612 15.422,15.12 15.858,13.611C15.982,13.174 16,12.451 16,8.004C16,3.557 15.982,2.834 15.858,2.396C15.431,0.923 14.72,0.405 12.756,0.146C12.062,0.048 5.831,-0.042 4.756,0.021ZM14.071,2.039C14.116,2.182 14.044,6.664 13.991,6.825C13.964,6.905 13.778,6.932 13.316,6.914L12.667,6.888L12.596,6.307C12.418,4.753 12.222,4.191 11.733,3.78C11.582,3.646 11.316,3.512 11.129,3.476C10.711,3.387 7.404,3.396 7.316,3.485C7.271,3.521 7.236,4.352 7.218,5.334L7.191,7.111L7.796,7.111C8.942,7.111 9.333,6.736 9.413,5.53L9.467,4.744L10.098,4.718C10.649,4.7 10.738,4.718 10.764,4.852C10.782,4.941 10.782,6.396 10.756,8.093L10.711,11.174L10.071,11.2C9.716,11.218 9.422,11.218 9.413,11.2C9.413,11.183 9.378,10.745 9.342,10.227C9.236,8.861 9.031,8.62 7.893,8.557L7.2,8.513L7.2,10.227C7.2,12.629 7.253,12.727 8.533,12.808L9.342,12.852L9.316,13.531L9.289,14.21L8.4,14.263C6.711,14.37 2.8,14.353 2.684,14.236C2.56,14.111 2.542,13.379 2.658,13.067C2.738,12.87 2.8,12.843 3.467,12.808C4.107,12.772 4.222,12.736 4.427,12.522L4.667,12.29L4.693,8.093L4.72,3.896L4.498,3.673C4.293,3.468 4.204,3.45 3.564,3.45C3.173,3.45 2.827,3.414 2.8,3.36C2.711,3.209 2.64,2.405 2.702,2.164L2.756,1.932L8.391,1.932C12.827,1.932 14.036,1.958 14.071,2.039Z"/>
</svg>
